dist/img/sprites/x.svg

<svg width="25" height="25" viewBox="0 0 25 25" fill="none" xmlns="http://www.w3.org/2000/svg">
<path fill-rule="evenodd" clip-rule="evenodd" d="M19.2143 7.06042C19.2998 6.97501 19.3677 6.87359 19.414 6.76195C19.4603 6.65031 19.4842 6.53065 19.4843 6.40978C19.4844 6.28892 19.4606 6.16922 19.4145 6.05753C19.3683 5.94584 19.3005 5.84433 19.2151 5.75882C19.1297 5.6733 19.0283 5.60544 18.9167 5.55912C18.805 5.5128 18.6854 5.48892 18.5645 5.48885C18.4436 5.48877 18.3239 5.51251 18.2122 5.55869C18.1005 5.60487 17.999 5.67261 17.9135 5.75802L12.3631 11.3084L6.81432 5.75802C6.64161 5.58531 6.40737 5.48828 6.16312 5.48828C5.91888 5.48828 5.68463 5.58531 5.51192 5.75802C5.33921 5.93073 5.24219 6.16497 5.24219 6.40922C5.24219 6.65346 5.33921 6.88771 5.51192 7.06042L11.0623 12.6092L5.51192 18.158C5.42641 18.2435 5.35857 18.3451 5.31229 18.4568C5.26601 18.5685 5.24219 18.6883 5.24219 18.8092C5.24219 18.9302 5.26601 19.0499 5.31229 19.1616C5.35857 19.2734 5.42641 19.3749 5.51192 19.4604C5.68463 19.6331 5.91888 19.7302 6.16312 19.7302C6.28406 19.7302 6.40382 19.7063 6.51555 19.66C6.62728 19.6138 6.72881 19.5459 6.81432 19.4604L12.3631 13.91L17.9135 19.4604C18.0862 19.6329 18.3204 19.7297 18.5645 19.7296C18.8086 19.7294 19.0426 19.6323 19.2151 19.4596C19.3876 19.2869 19.4844 19.0527 19.4843 18.8087C19.4841 18.5646 19.387 18.3305 19.2143 18.158L13.6639 12.6092L19.2143 7.06042Z" fill="currentColor"/>
</svg>

<svg width="25" height="25" viewBox="0 0 25 25" fill="none" xmlns="http://www.w3.org/2000/svg"><path fill-rule="evenodd" clip-rule="evenodd" d="M19.214 7.06a.92.92 0 10-1.3-1.302l-5.55 5.55-5.55-5.55A.92.92 0 105.512 7.06l5.55 5.55-5.55 5.548a.921.921 0 001.302 1.302l5.55-5.55 5.55 5.55a.92.92 0 001.3-1.302l-5.55-5.549 5.55-5.549z" fill="currentColor"/></svg>
